svgs/bloons_td_6.svg

<svg width="192" height="192" viewBox="0 0 192 192" fill="none" xmlns="http://www.w3.org/2000/svg">
<path d="M157.063 21.9716C156.979 21.8802 150.491 26.1102 142.654 31.3688C128.393 40.9334 128.393 40.9333 124.483 40.9974C121.572 41.0406 119.411 41.453 116.023 42.6034C113.516 43.4603 110.261 44.8483 108.788 45.6997C106.734 46.8827 104.974 48.3601 101.236 52.0424C96.8809 56.3225 96.1043 57.2709 93.9835 60.8324C92.6784 63.0334 90.4317 67.1873 88.9897 70.0661C87.5427 72.9499 86.3266 75.2875 86.2766 75.267C86.2267 75.2413 84.8437 75.0222 83.2 74.7754C81.5563 74.5287 77.8345 74.3481 74.9237 74.3712C72.0128 74.3993 67.9346 74.7636 65.8481 75.1817C63.7617 75.5998 61.0192 76.4041 59.7594 76.9658C58.4997 77.5274 56.7829 78.6582 55.9473 79.4803C55.1115 80.3075 54.1508 81.6315 53.8172 82.4282C53.4836 83.2248 53.3331 84.2998 53.4838 84.8193C53.6296 85.3337 54.7006 86.722 55.8489 87.8946C57.206 89.2805 59.4986 90.9719 62.348 92.6937C65.1581 94.3605 68.0517 95.8818 71.0173 97.2514C73.3662 98.2944 75.7907 99.3029 76.4112 99.4848C77.4121 99.7809 77.5755 100.014 77.862 101.591C78.0766 102.79 78.6092 103.801 79.494 104.71C80.2198 105.446 81.5211 106.353 82.3859 106.718C83.2607 107.084 84.5223 107.407 85.1995 107.434C86.4285 107.486 86.4285 107.486 88.1722 112.617C89.3144 115.88 90.6212 119.082 92.0875 122.211C93.4612 125.051 94.9887 127.54 96.2694 129.041C97.719 130.729 98.5406 131.421 99.1824 131.482C99.7823 131.517 100.383 131.427 100.946 131.217C101.425 131.02 102.592 130.116 103.539 129.204C104.507 128.267 105.772 126.519 106.437 125.192C107.241 123.483 107.918 121.718 108.463 119.909C108.93 118.304 109.615 114.84 109.97 112.228C110.331 109.605 110.578 105.126 110.524 102.268C110.427 97.0714 110.432 97.0714 114.641 94.5505C116.952 93.1637 120.698 90.7541 122.956 89.1958C125.214 87.6375 128.717 84.8886 130.741 83.0866C132.947 81.1254 135.192 78.7722 136.346 77.2137C137.408 75.785 138.901 73.3544 139.658 71.8122C140.425 70.2701 141.291 67.8537 141.59 66.4331C141.889 65.0124 142.142 62.6557 142.16 61.1871C142.174 59.7235 141.993 57.6142 141.763 56.4954C141.527 55.3816 141.552 54.3657 141.814 54.2324C142.081 54.1041 145.656 46.8289 149.757 38.0697C153.864 29.3056 157.153 22.0629 157.063 21.9716Z" stroke="black" stroke-width="12"/>
<path d="M67 144.326C48.0368 133.784 35 111.85 35 86.5C35 50.8776 60.7436 22 92.5 22C106.358 22 119.072 27.4995 129 36.659M67 144.326L52.5 156.5L68 170C71.8333 168.451 81.6 164.269 82 149.927M67 144.326C71.6753 146.926 76.7108 148.832 82 149.927M82 149.927C85.4044 150.632 88.9139 151 92.5 151C124.256 151 150 122.122 150 86.5C150 74.8548 147.249 63.9304 142.436 54.5" stroke="black" stroke-width="12" stroke-linejoin="round"/>
</svg>

<svg width="192" height="192" viewBox="0 0 192 192" fill="none" xmlns="http://www.w3.org/2000/svg"><path d="M157.063 21.972c-.084-.092-6.572 4.138-14.409 9.397-14.261 9.564-14.261 9.564-18.171 9.628-2.911.044-5.072.456-8.46 1.606-2.507.857-5.762 2.245-7.235 3.097-2.054 1.183-3.814 2.66-7.552 6.342-4.355 4.28-5.132 5.229-7.252 8.79-1.306 2.201-3.552 6.355-4.994 9.234-1.447 2.884-2.663 5.221-2.713 5.201-.05-.026-1.433-.245-3.077-.492-1.644-.246-5.365-.427-8.276-.404-2.911.028-6.99.393-9.076.81-2.086.419-4.829 1.223-6.089 1.785-1.26.561-2.976 1.692-3.812 2.514-.836.828-1.796 2.151-2.13 2.948-.333.797-.484 1.872-.333 2.391.146.515 1.217 1.903 2.365 3.076 1.357 1.386 3.65 3.077 6.499 4.799a95.395 95.395 0 0 0 8.67 4.557c2.348 1.043 4.773 2.052 5.393 2.234 1.001.296 1.165.529 1.451 2.106.215 1.199.747 2.21 1.632 3.119.726.736 2.027 1.643 2.892 2.008.875.366 2.136.689 2.814.716 1.228.052 1.228.052 2.972 5.183a102.121 102.121 0 0 0 3.916 9.594c1.373 2.84 2.9 5.329 4.181 6.83 1.45 1.688 2.272 2.38 2.913 2.441.6.035 1.201-.055 1.764-.265.479-.197 1.646-1.101 2.593-2.013.968-.937 2.233-2.685 2.898-4.012a38.49 38.49 0 0 0 2.026-5.283c.467-1.605 1.152-5.069 1.507-7.681.361-2.623.608-7.102.554-9.96-.097-5.197-.092-5.197 4.117-7.718a188.619 188.619 0 0 0 8.315-5.354c2.258-1.558 5.761-4.307 7.785-6.11 2.206-1.96 4.451-4.314 5.605-5.872 1.062-1.429 2.555-3.86 3.312-5.402.767-1.542 1.633-3.958 1.932-5.379.299-1.42.552-3.777.57-5.246.014-1.463-.167-3.573-.397-4.692-.236-1.113-.211-2.13.051-2.263.267-.128 3.842-7.403 7.943-16.162 4.107-8.764 7.396-16.007 7.306-16.098Z" stroke="#000" stroke-width="12"/><path d="M67 144.326C48.037 133.784 35 111.85 35 86.5 35 50.878 60.744 22 92.5 22c13.858 0 26.572 5.5 36.5 14.659M67 144.326 52.5 156.5 68 170c3.833-1.549 13.6-5.731 14-20.073m-15-5.601c4.675 2.6 9.71 4.506 15 5.601m0 0A51.72 51.72 0 0 0 92.5 151c31.756 0 57.5-28.878 57.5-64.5 0-11.645-2.751-22.57-7.564-32" stroke="#000" stroke-width="12" stroke-linejoin="round"/></svg>
